logos/parse.svg

<?xml version="1.0" encoding="UTF-8" standalone="no"?>
<svg width="256px" height="256px" viewBox="0 0 256 256" version="1.1" xmlns="http://www.w3.org/2000/svg" xmlns:xlink="http://www.w3.org/1999/xlink" preserveAspectRatio="xMidYMid">
    <g>
        <path d="M149.333333,159.146667 L86.4,159.146667 C77.2266667,159.146667 71.8933333,164.8 71.8933333,172.906667 C71.8933333,180.16 76.8,185.28 83.84,185.28 C92.0533333,185.28 96.7466667,179.626667 97.1733333,171.52 L115.413333,171.52 C114.453333,191.36 102.08,201.92 83.6266667,201.92 C66.3466667,201.92 53.44,190.186667 53.44,172.693333 C53.44,154.453333 66.9866667,141.76 87.36,141.76 L149.653333,141.76 C170.666667,141.76 186.666667,126.293333 186.666667,105.493333 C186.666667,84.48 172.373333,69.6533333 152,69.6533333 C131.84,69.6533333 115.52,84.3733333 115.52,111.573333 L115.52,129.386667 L97.0666667,129.386667 L97.0666667,111.573333 C97.0666667,75.52 120.213333,52.16 152.32,52.16 C182.933333,52.16 205.226667,74.1333333 205.226667,105.28 C205.44,136.426667 181.546667,159.146667 149.333333,159.146667 L149.333333,159.146667 Z M128,256 C199.573333,256 256,199.36 256,128 C256,56.64 199.573333,0 128,0 C56.4266667,0 0,56.8533333 0,128 C0,199.36 56.4266667,256 128,256 L128,256 Z" fill="#169CEE"></path>
    </g>
</svg>

<svg preserveAspectRatio="xMidYMid" viewBox="0 0 256 256" xmlns="http://www.w3.org/2000/svg">
  <path fill="#169CEE" d="M149.333 159.147H86.4c-9.173 0-14.507 5.653-14.507 13.76 0 7.253 4.907 12.373 11.947 12.373 8.213 0 12.907-5.653 13.333-13.76h18.24c-.96 19.84-13.333 30.4-31.786 30.4-17.28 0-30.187-11.733-30.187-29.227 0-18.24 13.547-30.933 33.92-30.933h62.293c21.014 0 37.014-15.467 37.014-36.267 0-21.013-14.294-35.84-34.667-35.84-20.16 0-36.48 14.72-36.48 41.92v17.814H97.067v-17.814c0-36.053 23.146-59.413 55.253-59.413 30.613 0 52.907 21.973 52.907 53.12.213 31.147-23.68 53.867-55.894 53.867ZM128 256c71.573 0 128-56.64 128-128S199.573 0 128 0C56.427 0 0 56.853 0 128c0 71.36 56.427 128 128 128Z"/>
</svg>
